icons/1_Primary/Kwansei Gakuin University.svg

<svg width="1024" height="1024" viewBox="0 0 1024 1024" fill="none" xmlns="http://www.w3.org/2000/svg">
<g clip-path="url(#clip0_2_2637)">
<path d="M512 1024C794.77 1024 1024 794.77 1024 512C1024 229.23 794.77 0 512 0C229.23 0 0 229.23 0 512C0 794.77 229.23 1024 512 1024Z" fill="#F9DE81"/>
<path d="M728.54 329.8C702.71 285.89 666.54 251.03 623.94 225.2C616.184 220.134 607.968 215.812 599.4 212.29C604.56 220.04 609.73 226.5 613.6 234.29C689.79 367.29 643.3 537.76 510.29 613.95C425.07 663 320.47 663 234 613.9C226.25 610.03 219.79 604.9 212 599.69C215.87 607.44 219.75 615.19 224.91 624.23C306.27 762.41 484.47 808.89 623.91 728.83C763.35 648.77 808.61 469.27 728.54 329.8ZM404.41 744.32C341.13 727.53 286.9 688.79 249.41 635.85C395.33 704.29 569.67 641.01 638.11 495.09C645.612 479.898 651.25 463.855 654.9 447.31C672.98 380.16 666.52 310.43 636.82 247.15C762.08 336.25 791.82 509.3 703.97 634.56C635.56 731.41 516.76 774 404.41 744.32ZM629.11 686.21C630.58 687.803 632.329 689.115 634.27 690.08V691.37L633 692.67L617.49 703L614.91 701.71L611 695.25C596.95 678.64 572.81 674.73 553.54 685.9L573.54 717.21C574.555 719.514 576.396 721.355 578.7 722.37L579.99 723.66L578.74 725L563.24 732.75H560.66V731.46C560.66 728.88 559.37 727.59 558.08 725C555.5 721.13 510.3 648.81 509.01 647.52L503.84 643.65V642.36L520.63 632H521.92V634.58L523.21 638.45L544.51 671.76C544.72 671.66 544.95 671.59 545.17 671.49V669.49H546.46L546.73 670.03C547.78 662.03 551.63 632.45 551.63 626.88V616.48L550.34 615.19V613.9L572.34 597.11H573.63V599.69C572.34 602.27 572.34 604.86 572.34 607.44C572.34 613.14 567.34 654.99 566.14 664.76C572.426 663.591 578.806 663.002 585.2 663C602 664.26 617.49 673.3 629.11 686.21ZM656.23 657.8C660.1 662.97 657.52 669.42 652.36 673.3C647.2 677.18 640.74 674.59 636.86 669.43C632.98 664.27 635.57 657.81 640.73 653.93C643.352 652.628 646.352 652.303 649.192 653.012C652.033 653.721 654.527 655.419 656.23 657.8ZM733.71 542.87C728.55 546.74 722.09 544.16 718.21 539C714.33 533.84 716.92 527.38 722.08 523.5C724.702 522.198 727.702 521.873 730.542 522.582C733.383 523.291 735.877 524.989 737.58 527.37C741.46 532.54 738.87 539 733.71 542.87ZM726 568.7L727.29 569.99C724.71 575.16 723.42 580.32 722.13 585.49C719.635 593.788 715.49 601.497 709.943 608.154C704.396 614.811 697.562 620.279 689.85 624.23C671.77 633.23 648.53 630.69 631.74 617.77C618.83 607.44 611.08 593.23 609.74 577.77C608.45 559.69 616.2 542.9 629.11 531.28C631.861 529.822 634.112 527.571 635.57 524.82L636.86 522.24H638.15L654.94 535.15L653.65 536.44C645.9 539.02 640.74 544.19 635.57 549.35C622.66 566.14 625.24 590.67 642.03 603.59C658.82 617.79 684.64 613.92 697.56 597.13C701.43 593.26 705.31 588.13 706.56 582.92C706.56 581.63 707.85 577.76 705.27 575.17C702.69 572.58 688.48 562.26 688.48 562.26H685.9L671.7 580.34L669.12 584.21L667.83 585.5H666.54L654.92 576.5L653.63 575.21L654.92 573.92L658.79 572.63L683.34 539H684.63L724.63 568.7H726Z" fill="white"/>
</g>
<defs>
<clipPath id="clip0_2_2637">
<rect width="1024" height="1024" fill="white"/>
</clipPath>
</defs>
</svg>

<svg width="1024" height="1024" fill="none" xmlns="http://www.w3.org/2000/svg"><g clip-path="url(#a)"><path d="M512 1024c282.77 0 512-229.23 512-512S794.77 0 512 0 0 229.23 0 512s229.23 512 512 512Z" fill="#F9DE81"/><path d="M728.54 329.8c-25.83-43.91-62-78.77-104.6-104.6a147.242 147.242 0 0 0-24.54-12.91c5.16 7.75 10.33 14.21 14.2 22 76.19 133 29.7 303.47-103.31 379.66C425.07 663 320.47 663 234 613.9c-7.75-3.87-14.21-9-22-14.21 3.87 7.75 7.75 15.5 12.91 24.54 81.36 138.18 259.56 184.66 399 104.6s184.7-259.56 104.63-399.03ZM404.41 744.32c-63.28-16.79-117.51-55.53-155-108.47 145.92 68.44 320.26 5.16 388.7-140.76a210.172 210.172 0 0 0 16.79-47.78c18.08-67.15 11.62-136.88-18.08-200.16 125.26 89.1 155 262.15 67.15 387.41C635.56 731.41 516.76 774 404.41 744.32Zm224.7-58.11a17.813 17.813 0 0 0 5.16 3.87v1.29l-1.27 1.3L617.49 703l-2.58-1.29-3.91-6.46c-14.05-16.61-38.19-20.52-57.46-9.35l20 31.31a10.08 10.08 0 0 0 5.16 5.16l1.29 1.29-1.25 1.34-15.5 7.75h-2.58v-1.29c0-2.58-1.29-3.87-2.58-6.46-2.58-3.87-47.78-76.19-49.07-77.48l-5.17-3.87v-1.29L520.63 632h1.29v2.58l1.29 3.87 21.3 33.31c.21-.1.44-.17.66-.27v-2h1.29l.27.54c1.05-8 4.9-37.58 4.9-43.15v-10.4l-1.29-1.29v-1.29l22-16.79h1.29v2.58c-1.29 2.58-1.29 5.17-1.29 7.75 0 5.7-5 47.55-6.2 57.32A104.425 104.425 0 0 1 585.2 663c16.8 1.26 32.29 10.3 43.91 23.21Zm27.12-28.41c3.87 5.17 1.29 11.62-3.87 15.5-5.16 3.88-11.62 1.29-15.5-3.87-3.88-5.16-1.29-11.62 3.87-15.5a12.318 12.318 0 0 1 15.5 3.87Zm77.48-114.93c-5.16 3.87-11.62 1.29-15.5-3.87-3.88-5.16-1.29-11.62 3.87-15.5a12.318 12.318 0 0 1 15.5 3.87c3.88 5.17 1.29 11.63-3.87 15.5ZM726 568.7l1.29 1.29c-2.58 5.17-3.87 10.33-5.16 15.5a64.348 64.348 0 0 1-32.28 38.74c-18.08 9-41.32 6.46-58.11-6.46-12.91-10.33-20.66-24.54-22-40-1.29-18.08 6.46-34.87 19.37-46.49a15.557 15.557 0 0 0 6.46-6.46l1.29-2.58h1.29l16.79 12.91-1.29 1.29c-7.75 2.58-12.91 7.75-18.08 12.91-12.91 16.79-10.33 41.32 6.46 54.24 16.79 14.2 42.61 10.33 55.53-6.46 3.87-3.87 7.75-9 9-14.21 0-1.29 1.29-5.16-1.29-7.75s-16.79-12.91-16.79-12.91h-2.58l-14.2 18.08-2.58 3.87-1.29 1.29h-1.29l-11.62-9-1.29-1.29 1.29-1.29 3.87-1.29L683.34 539h1.29l40 29.7H726Z" fill="#fff"/></g><defs><clipPath id="a"><path fill="#fff" d="M0 0h1024v1024H0z"/></clipPath></defs></svg>
